src/lib/images/icons/telegram.svg

<svg viewBox="0 0 36 30" fill="none" xmlns="http://www.w3.org/2000/svg">
<path d="M35.8756 2.73045L30.4773 28.1891C30.0697 29.9856 29.0079 30.4328 27.4989 29.587L19.2729 23.5254L15.3043 27.3433C14.8647 27.7828 14.498 28.1495 13.6509 28.1495L14.2425 19.7728L29.487 5.99759C30.1502 5.40729 29.3426 5.07891 28.4572 5.6705L9.61072 17.538L1.49716 14.9979C-0.267377 14.4472 -0.29932 13.2334 1.86515 12.3862L33.6 0.159667C35.0694 -0.391033 36.3548 0.486765 35.8756 2.73173V2.73045Z" fill="#fff"/>
</svg>

<svg viewBox="0 0 36 30" fill="none" xmlns="http://www.w3.org/2000/svg"><path d="M35.876 2.73l-5.399 25.46c-.407 1.796-1.47 2.243-2.978 1.397l-8.226-6.062-3.969 3.818c-.44.44-.806.806-1.653.806l.591-8.376L29.487 5.998c.663-.59-.144-.92-1.03-.328L9.611 17.538l-8.114-2.54c-1.764-.55-1.796-1.765.368-2.612L33.6.16c1.47-.551 2.755.327 2.276 2.572V2.73z" fill="#fff"/></svg>
